; G-Code generated by Simplify3D(R) Version 4.0.0
; Oct 23, 2018 at 11:47:40 AM
; Settings Summary
;   processName,Process1
;   applyToModels,Support_Popo
;   profileName,Default (modified)
;   profileVersion,2017-03-01 08:00:00
;   baseProfile,
;   printMaterial,PLA
;   printQuality,Medium
;   printExtruders,
;   extruderName,Primary Extruder
;   extruderToolheadNumber,0
;   extruderDiameter,0.35
;   extruderAutoWidth,0
;   extruderWidth,0.4
;   extrusionMultiplier,0.9
;   extruderUseRetract,1
;   extruderRetractionDistance,1
;   extruderExtraRestartDistance,0
;   extruderRetractionZLift,0
;   extruderRetractionSpeed,1800
;   extruderUseCoasting,0
;   extruderCoastingDistance,0.2
;   extruderUseWipe,0
;   extruderWipeDistance,5
;   primaryExtruder,0
;   layerHeight,0.2
;   topSolidLayers,3
;   bottomSolidLayers,3
;   perimeterOutlines,2
;   printPerimetersInsideOut,1
;   startPointOption,2
;   startPointOriginX,0
;   startPointOriginY,0
;   sequentialIslands,0
;   spiralVaseMode,0
;   firstLayerHeightPercentage,90
;   firstLayerWidthPercentage,100
;   firstLayerUnderspeed,0.5
;   useRaft,0
;   raftExtruder,0
;   raftTopLayers,3
;   raftBaseLayers,2
;   raftOffset,3
;   raftSeparationDistance,0.14
;   raftTopInfill,100
;   aboveRaftSpeedMultiplier,0.3
;   useSkirt,1
;   skirtExtruder,0
;   skirtLayers,1
;   skirtOutlines,2
;   skirtOffset,4
;   usePrimePillar,0
;   primePillarExtruder,999
;   primePillarWidth,12
;   primePillarLocation,7
;   primePillarSpeedMultiplier,1
;   useOozeShield,0
;   oozeShieldExtruder,999
;   oozeShieldOffset,2
;   oozeShieldOutlines,1
;   oozeShieldSidewallShape,1
;   oozeShieldSidewallAngle,30
;   oozeShieldSpeedMultiplier,1
;   infillExtruder,0
;   internalInfillPattern,Rectilinear
;   externalInfillPattern,Rectilinear
;   infillPercentage,20
;   outlineOverlapPercentage,15
;   infillExtrusionWidthPercentage,100
;   minInfillLength,5
;   infillLayerInterval,1
;   internalInfillAngles,45,-45
;   overlapInternalInfillAngles,0
;   externalInfillAngles,45,-45
;   generateSupport,0
;   supportExtruder,0
;   supportInfillPercentage,30
;   supportExtraInflation,0
;   supportBaseLayers,0
;   denseSupportExtruder,0
;   denseSupportLayers,0
;   denseSupportInfillPercentage,70
;   supportLayerInterval,1
;   supportHorizontalPartOffset,0.3
;   supportUpperSeparationLayers,1
;   supportLowerSeparationLayers,1
;   supportType,0
;   supportGridSpacing,4
;   maxOverhangAngle,45
;   supportAngles,0
;   temperatureName,Primary Extruder
;   temperatureNumber,0
;   temperatureSetpointCount,1
;   temperatureSetpointLayers,1
;   temperatureSetpointTemperatures,190
;   temperatureStabilizeAtStartup,1
;   temperatureHeatedBed,0
;   temperatureRelayBetweenLayers,0
;   temperatureRelayBetweenLoops,0
;   fanLayers,1,2
;   fanSpeeds,0,100
;   blipFanToFullPower,0
;   adjustSpeedForCooling,1
;   minSpeedLayerTime,15
;   minCoolingSpeedSlowdown,20
;   increaseFanForCooling,0
;   minFanLayerTime,45
;   maxCoolingFanSpeed,100
;   increaseFanForBridging,0
;   bridgingFanSpeed,100
;   use5D,1
;   relativeEdistances,0
;   allowEaxisZeroing,1
;   independentExtruderAxes,0
;   includeM10123,0
;   stickySupport,1
;   applyToolheadOffsets,0
;   gcodeXoffset,0
;   gcodeYoffset,0
;   gcodeZoffset,0
;   overrideMachineDefinition,0
;   machineTypeOverride,0
;   strokeXoverride,200
;   strokeYoverride,200
;   strokeZoverride,200
;   originOffsetXoverride,0
;   originOffsetYoverride,0
;   originOffsetZoverride,0
;   homeXdirOverride,-1
;   homeYdirOverride,-1
;   homeZdirOverride,-1
;   flipXoverride,1
;   flipYoverride,-1
;   flipZoverride,1
;   toolheadOffsets,0,0|0,0|0,0|0,0|0,0|0,0
;   overrideFirmwareConfiguration,0
;   firmwareTypeOverride,RepRap (Marlin/Repetier/Sprinter)
;   GPXconfigOverride,r2
;   baudRateOverride,115200
;   overridePrinterModels,0
;   printerModelsOverride
;   startingGcode,M31969 S4;,G4 S15;,G28 ; home all axes
;   layerChangeGcode,
;   retractionGcode,
;   toolChangeGcode,
;   endingGcode,M104 S0 ; turn off extruder,M140 S0 ; turn off bed,M84 ; disable motors
;   exportFileFormat,gcode
;   celebration,0
;   celebrationSong,Random Song
;   postProcessing,
;   defaultSpeed,3600
;   outlineUnderspeed,0.5
;   solidInfillUnderspeed,0.8
;   supportUnderspeed,0.8
;   rapidXYspeed,4800
;   rapidZspeed,1000
;   minBridgingArea,50
;   bridgingExtraInflation,0
;   bridgingExtrusionMultiplier,1
;   bridgingSpeedMultiplier,1
;   useFixedBridgingAngle,0
;   fixedBridgingAngle,0
;   applyBridgingToPerimeters,0
;   filamentDiameters,1.75|1.75|1.75|1.75|1.75|1.75
;   filamentPricesPerKg,46|46|46|46|46|46
;   filamentDensities,1.25|1.25|1.25|1.25|1.25|1.25
;   useMinPrintHeight,0
;   minPrintHeight,0
;   useMaxPrintHeight,0
;   maxPrintHeight,0
;   useDiaphragm,0
;   diaphragmLayerInterval,20
;   robustSlicing,1
;   mergeAllIntoSolid,0
;   onlyRetractWhenCrossingOutline,1
;   retractBetweenLayers,1
;   useRetractionMinTravel,0
;   retractionMinTravel,3
;   retractWhileWiping,0
;   onlyWipeOutlines,1
;   avoidCrossingOutline,0
;   maxMovementDetourFactor,3
;   toolChangeRetractionDistance,12
;   toolChangeExtraRestartDistance,-0.5
;   toolChangeRetractionSpeed,600
;   externalThinWallType,0
;   internalThinWallType,2
;   thinWallAllowedOverlapPercentage,10
;   singleExtrusionMinLength,1
;   singleExtrusionMinPrintingWidthPercentage,50
;   singleExtrusionMaxPrintingWidthPercentage,200
;   singleExtrusionEndpointExtension,0.2
;   horizontalSizeCompensation,0
M31969 S4;
G4 S15;
G90
M82
M106 S0
M104 S190 T0
M109 S190 T0
G28 ; home all axes
G92 E0
G1 E-1.0000 F1800
G1 Z0.180 F1000
; process Process1
; layer 1, Z = 0.180
T0
; tool H0.200 W0.400
; skirt
G1 X79.911 Y90.012 F4800
G1 E0.0000 F540
G92 E0
G1 X80.166 Y89.907 E0.0083 F1481
G1 X111.226 Y91.798 E0.9397
G1 X111.258 Y91.801 E0.9407
G1 X111.712 Y91.878 E0.9545
G1 X111.743 Y91.885 E0.9554
G1 X122.954 Y95.045 E1.3041
G1 X122.990 Y95.058 E1.3053
G1 X123.500 Y95.276 E1.3219
G1 X123.535 Y95.293 E1.3230
G1 X124.473 Y95.845 E1.3556
G1 X124.534 Y95.893 E1.3579
G1 X125.318 Y96.685 E1.3913
G1 X125.365 Y96.746 E1.3936
G1 X125.981 Y97.815 E1.4305
G1 X126.005 Y97.868 E1.4323
G1 X126.276 Y98.662 E1.4574
G1 X126.289 Y98.719 E1.4591
G1 X126.381 Y99.405 E1.4799
G1 X126.383 Y99.425 E1.4805
G1 X126.403 Y99.712 E1.4891
G1 X126.403 Y99.732 E1.4897
G1 X126.404 Y105.157 E1.6520
G1 X126.401 Y105.196 E1.6532
G1 X126.327 Y105.755 E1.6701
G1 X126.320 Y105.793 E1.6713
G1 X126.070 Y106.725 E1.7001
G1 X126.049 Y106.780 E1.7019
G1 X125.675 Y107.539 E1.7273
G1 X125.644 Y107.589 E1.7290
G1 X125.135 Y108.253 E1.7540
G1 X125.109 Y108.282 E1.7552
G1 X124.711 Y108.681 E1.7721
G1 X124.681 Y108.706 E1.7733
G1 X124.020 Y109.214 E1.7982
G1 X123.970 Y109.245 E1.8000
G1 X123.215 Y109.618 E1.8252
G1 X123.161 Y109.639 E1.8269
G1 X122.234 Y109.889 E1.8556
G1 X122.195 Y109.897 E1.8568
G1 X121.632 Y109.972 E1.8738
G1 X121.593 Y109.974 E1.8750
G1 X115.865 Y109.975 E2.0465
G1 X115.637 Y109.877 E2.0539
G1 X113.097 Y107.178 E2.1648
G1 X113.013 Y106.945 E2.1723
G1 X113.140 Y104.853 E2.2350
G1 X110.419 Y104.641 E2.3167
G1 X110.208 Y104.535 E2.3238
G1 X107.902 Y101.872 E2.4292
G1 X107.826 Y101.648 E2.4363
G1 X107.827 Y101.638 E2.4366
G1 X90.616 Y100.410 E2.9531
G1 X90.151 Y106.380 E3.1323
G1 X90.053 Y106.583 E3.1391
G1 X87.597 Y108.864 E3.2394
G1 X87.387 Y108.947 E3.2462
G1 X83.544 Y108.960 E3.3612
G1 X83.476 Y108.952 E3.3633
G1 X82.510 Y108.730 E3.3929
G1 X82.445 Y108.707 E3.3950
G1 X81.338 Y108.164 E3.4319
G1 X81.279 Y108.126 E3.4340
G1 X80.501 Y107.485 E3.4642
G1 X80.452 Y107.434 E3.4663
G1 X79.785 Y106.552 E3.4994
G1 X79.757 Y106.509 E3.5010
G1 X79.416 Y105.845 E3.5233
G1 X79.396 Y105.797 E3.5248
G1 X79.345 Y105.633 E3.5300
G1 X78.114 Y105.854 E3.5675
G1 X77.880 Y105.803 E3.5746
G1 X74.964 Y103.775 E3.6809
G1 X74.835 Y103.574 E3.6881
G1 X73.917 Y98.468 E3.8434
G1 X73.968 Y98.235 E3.8505
G1 X75.996 Y95.318 E3.9569
G1 X76.197 Y95.189 E3.9640
G1 X77.355 Y94.981 E3.9992
G1 X77.069 Y93.390 E4.0476
G1 X77.144 Y93.124 E4.0559
G1 X79.911 Y90.012 E4.1805
G1 X80.148 Y90.347 F4800
G92 E0
G1 X80.233 Y90.312 E0.0028 F1481
G1 X111.191 Y92.196 E0.9312
G1 X111.201 Y92.197 E0.9315
G1 X111.634 Y92.271 E0.9446
G1 X111.645 Y92.273 E0.9449
G1 X122.833 Y95.427 E1.2929
G1 X122.845 Y95.431 E1.2933
G1 X123.331 Y95.638 E1.3091
G1 X123.343 Y95.644 E1.3095
G1 X124.248 Y96.177 E1.3409
G1 X124.268 Y96.193 E1.3417
G1 X125.016 Y96.948 E1.3735
G1 X125.032 Y96.969 E1.3743
G1 X125.625 Y97.998 E1.4098
G1 X125.633 Y98.015 E1.4104
G1 X125.891 Y98.773 E1.4344
G1 X125.895 Y98.791 E1.4349
G1 X125.984 Y99.452 E1.4549
G1 X125.985 Y99.459 E1.4551
G1 X126.003 Y99.732 E1.4633
G1 X126.003 Y99.739 E1.4635
G1 X126.004 Y105.144 E1.6253
G1 X126.003 Y105.157 E1.6257
G1 X125.933 Y105.690 E1.6418
G1 X125.930 Y105.703 E1.6422
G1 X125.689 Y106.602 E1.6701
G1 X125.682 Y106.621 E1.6706
G1 X125.325 Y107.345 E1.6948
G1 X125.314 Y107.362 E1.6954
G1 X124.826 Y107.999 E1.7194
G1 X124.817 Y108.008 E1.7198
G1 X124.437 Y108.388 E1.7359
G1 X124.427 Y108.397 E1.7363
G1 X123.792 Y108.885 E1.7603
G1 X123.775 Y108.895 E1.7609
G1 X123.056 Y109.251 E1.7849
G1 X123.037 Y109.258 E1.7855
G1 X122.143 Y109.500 E1.8132
G1 X122.130 Y109.502 E1.8136
G1 X121.593 Y109.574 E1.8298
G1 X121.579 Y109.574 E1.8302
G1 X115.947 Y109.575 E1.9988
G1 X115.871 Y109.543 E2.0013
G1 X113.445 Y106.965 E2.1073
G1 X113.417 Y106.887 E2.1098
G1 X113.563 Y104.485 E2.1818
G1 X110.529 Y104.249 E2.2729
G1 X110.459 Y104.213 E2.2752
G1 X108.256 Y101.670 E2.3760
G1 X108.231 Y101.595 E2.3783
G1 X108.252 Y101.267 E2.3882
G1 X90.248 Y99.983 E2.9285
G1 X89.758 Y106.274 E3.1174
G1 X89.726 Y106.342 E3.1196
G1 X87.380 Y108.519 E3.2154
G1 X87.310 Y108.547 E3.2177
G1 X83.566 Y108.560 E3.3297
G1 X83.543 Y108.557 E3.3304
G1 X82.622 Y108.345 E3.3587
G1 X82.601 Y108.338 E3.3594
G1 X81.535 Y107.815 E3.3949
G1 X81.516 Y107.803 E3.3956
G1 X80.773 Y107.191 E3.4244
G1 X80.757 Y107.174 E3.4251
G1 X80.114 Y106.325 E3.4570
G1 X80.105 Y106.310 E3.4575
G1 X79.780 Y105.678 E3.4788
G1 X79.773 Y105.662 E3.4793
G1 X79.622 Y105.176 E3.4945
G1 X78.121 Y105.446 E3.5402
G1 X78.043 Y105.429 E3.5426
G1 X75.257 Y103.492 E3.6441
G1 X75.215 Y103.425 E3.6465
G1 X74.325 Y98.476 E3.7971
G1 X74.342 Y98.398 E3.7994
G1 X76.279 Y95.612 E3.9010
G1 X76.346 Y95.569 E3.9034
G1 X77.819 Y95.304 E3.9482
G1 X77.479 Y93.409 E4.0058
G1 X77.504 Y93.321 E4.0086
G1 X80.148 Y90.347 E4.1277
G92 E0
G1 E-1.0000 F1800
; inner perimeter
G1 X82.690 Y95.270 F4800
G1 E0.0000 F1800
G92 E0
G1 X85.617 Y95.448 E0.0878 F1111
G1 X85.579 Y98.115 E0.1676
G1 X85.140 Y103.759 E0.3371
G1 X84.218 Y103.769 E0.3647
G1 X82.690 Y95.270 E0.6231
G92 E0
G1 E-1.0000 F1800
G1 X113.295 Y97.725 F4800
G1 E0.0000 F1800
G92 E0
G1 X121.203 Y99.954 E0.2460 F1111
G1 X121.204 Y104.775 E0.3902
G1 X120.360 Y104.775 E0.4155
G1 X120.360 Y100.199 E0.5525
G1 X113.169 Y99.640 E0.7684
G1 X113.295 Y97.725 E0.8258
; outer perimeter
G1 X112.928 Y97.206 F4800
G92 E0
G1 X121.373 Y99.586 E0.2626 F741
G1 X121.454 Y99.621 E0.2653
G1 X121.515 Y99.668 E0.2676
G1 X121.562 Y99.730 E0.2699
G1 X121.591 Y99.801 E0.2722
G1 X121.603 Y99.890 E0.2749
G1 X121.604 Y104.862 E0.4237
G1 X121.592 Y104.952 E0.4265
G1 X121.562 Y105.024 E0.4288
G1 X121.514 Y105.086 E0.4311
G1 X121.453 Y105.133 E0.4334
G1 X121.381 Y105.163 E0.4358
G1 X121.295 Y105.174 E0.4384
G1 X117.929 Y105.175 E0.5391
G1 X117.967 Y104.552 E0.5578
G1 X119.960 Y104.552 E0.6175
G1 X119.960 Y100.569 E0.7367
G1 X112.744 Y100.008 E0.9533
G1 X112.928 Y97.206 E1.0374
G1 X112.850 Y97.184 F4800
G92 E0
G1 X86.020 Y95.270 E0.8052 F741
G1 X85.978 Y98.133 E0.8909
G1 X85.510 Y104.155 E1.0717
G1 X84.149 Y104.170 E1.1124
G1 X84.069 Y104.162 E1.1148
G1 X84.002 Y104.138 E1.1169
G1 X83.944 Y104.100 E1.1190
G1 X83.898 Y104.052 E1.1210
G1 X83.861 Y103.991 E1.1231
G1 X83.837 Y103.914 E1.1256
G1 X82.206 Y94.840 E1.4015
G1 X110.683 Y96.573 E2.2555
G1 X112.850 Y97.184 E2.3229
; solid layer
G1 X114.077 Y99.369 F4800
G92 E0
G1 X113.562 Y98.854 E0.0218 F1185
G1 X113.596 Y98.323 E0.0377
G1 X114.690 Y99.417 E0.0841
G1 X115.304 Y99.465 E0.1025
G1 X114.162 Y98.323 E0.1508
G1 X114.950 Y98.545 E0.1753
G1 X115.917 Y99.512 E0.2163
G1 X116.531 Y99.560 E0.2347
G1 X115.737 Y98.767 E0.2683
G1 X116.525 Y98.989 E0.2928
G1 X117.144 Y99.608 E0.3190
G1 X117.757 Y99.655 E0.3374
G1 X117.313 Y99.211 E0.3562
G1 X118.101 Y99.433 E0.3807
G1 X118.371 Y99.703 E0.3921
G1 X118.984 Y99.751 E0.4105
G1 X118.888 Y99.655 E0.4146
G1 X120.700 Y100.335 F4800
G92 E0
G1 X120.863 Y100.499 E0.0069 F1185
G1 X120.863 Y101.064 E0.0238
G1 X120.700 Y100.901 E0.0308
G1 X120.700 Y101.467 E0.0477
G1 X120.863 Y101.630 E0.0546
G1 X120.863 Y102.196 E0.0716
G1 X120.700 Y102.032 E0.0785
G1 X120.700 Y102.598 E0.0954
G1 X120.863 Y102.762 E0.1023
G1 X120.864 Y103.327 E0.1193
G1 X120.700 Y103.164 E0.1262
G1 X120.700 Y103.729 E0.1431
G1 X120.864 Y103.893 E0.1500
G1 X120.864 Y104.435 E0.1662
G1 X120.839 Y104.435 E0.1670
G1 X120.700 Y104.295 E0.1729
G92 E0
G1 E-1.0000 F1800
G1 X84.756 Y103.423 F4800
G1 E0.0000 F1800
G92 E0
G1 X84.445 Y103.113 E0.0131 F1185
G1 X84.321 Y102.423 E0.0341
G1 X84.860 Y102.962 E0.0570
G1 X84.901 Y102.438 E0.0727
G1 X84.197 Y101.733 E0.1025
G1 X84.073 Y101.044 E0.1235
G1 X84.942 Y101.913 E0.1603
G1 X84.983 Y101.388 E0.1760
G1 X83.949 Y100.354 E0.2198
G1 X83.825 Y99.664 E0.2408
G1 X85.024 Y100.863 E0.2915
G1 X85.065 Y100.338 E0.3073
G1 X83.701 Y98.975 E0.3650
G1 X83.577 Y98.285 E0.3859
G1 X85.105 Y99.813 E0.4506
G1 X85.146 Y99.288 E0.4664
G1 X83.453 Y97.596 E0.5381
G1 X83.330 Y96.906 E0.5590
G1 X85.187 Y98.763 E0.6377
G1 X85.228 Y98.239 E0.6534
G1 X83.206 Y96.216 E0.7390
G1 X83.101 Y95.636 E0.7567
G1 X83.197 Y95.642 E0.7595
G1 X85.245 Y97.690 E0.8462
G1 X85.253 Y97.132 E0.8629
G1 X83.799 Y95.678 E0.9245
G1 X84.401 Y95.715 E0.9425
G1 X85.261 Y96.574 E0.9789
G1 X85.269 Y96.017 E0.9956
G1 X85.004 Y95.752 E1.0068
G92 E0
G1 E-1.0000 F1800
; inner perimeter
G1 X80.243 Y99.746 F4800
G1 E0.0000 F1800
G92 E0
G1 X80.320 Y100.174 E0.0130 F1111
G1 X79.533 Y100.316 E0.0370
G1 X79.456 Y99.887 E0.0500
G1 X80.243 Y99.746 E0.0740
; outer perimeter
G1 X80.566 Y99.281 F4800
G92 E0
G1 X80.784 Y100.497 E0.0370 F741
G1 X79.210 Y100.780 E0.0849
G1 X78.991 Y99.564 E0.1218
G1 X80.566 Y99.281 E0.1697
G92 E0
G1 E-1.0000 F1800
; layer 2, Z = 0.380
M106 S255
; inner perimeter
G1 X80.129 Y99.113 F4800
G1 Z0.380 F1000
G1 E0.0000 F1800
G92 E0
G1 X80.434 Y100.806 E0.0515 F1141
G1 X79.646 Y100.948 E0.0754
G1 X79.342 Y99.255 E0.1269
G1 X80.129 Y99.113 E0.1509
; outer perimeter
G1 X80.452 Y98.649 F4800
G92 E0
G1 X80.898 Y101.129 E0.0754 F760
G1 X79.323 Y101.412 E0.1233
G1 X78.878 Y98.932 E0.1988
G1 X80.452 Y98.649 E0.2467
; solid layer
G1 X79.793 Y99.842 F4800
G92 E0
G1 X79.896 Y99.739 E0.0044 F1217
G1 X79.983 Y100.218 E0.0190
G1 X79.879 Y100.322 E0.0233
G92 E0
G1 E-1.0000 F1800
; inner perimeter
G1 X84.218 Y103.769 F4800
G1 E0.0000 F1800
G92 E0
G1 X82.690 Y95.270 E0.2585 F1141
G1 X85.617 Y95.448 E0.3463
G1 X85.579 Y98.115 E0.4261
G1 X85.140 Y103.759 E0.5955
G1 X84.218 Y103.769 E0.6231
G92 E0
G1 E-1.0000 F1800
G1 X113.169 Y99.640 F4800
G1 E0.0000 F1800
G92 E0
G1 X113.295 Y97.725 E0.0574 F1141
G1 X121.203 Y99.954 E0.3034
G1 X121.204 Y104.775 E0.4477
G1 X120.360 Y104.775 E0.4729
G1 X120.360 Y100.199 E0.6099
G1 X113.169 Y99.640 E0.8258
; outer perimeter
G1 X112.744 Y100.008 F4800
G92 E0
G1 X112.928 Y97.206 E0.0840 F760
G1 X121.373 Y99.586 E0.3467
G1 X121.451 Y99.619 E0.3492
G1 X121.512 Y99.666 E0.3515
G1 X121.566 Y99.737 E0.3542
G1 X121.590 Y99.797 E0.3561
G1 X121.603 Y99.886 E0.3588
G1 X121.604 Y104.862 E0.5078
G1 X121.592 Y104.952 E0.5105
G1 X121.562 Y105.024 E0.5128
G1 X121.514 Y105.086 E0.5152
G1 X121.453 Y105.133 E0.5175
G1 X121.381 Y105.163 E0.5198
G1 X121.290 Y105.175 E0.5225
G1 X117.929 Y105.175 E0.6232
G1 X117.967 Y104.552 E0.6418
G1 X119.960 Y104.552 E0.7015
G1 X119.960 Y100.569 E0.8207
G1 X112.744 Y100.008 E1.0374
G1 X112.850 Y97.184 F4800
G92 E0
G1 X86.020 Y95.270 E0.8052 F760
G1 X85.978 Y98.133 E0.8909
G1 X85.510 Y104.155 E1.0717
G1 X84.149 Y104.170 E1.1124
G1 X84.070 Y104.162 E1.1148
G1 X84.003 Y104.139 E1.1169
G1 X83.944 Y104.100 E1.1190
